file/screen-gems.svg

<svg clip-rule="evenodd" fill-rule="evenodd" stroke-linejoin="round" stroke-miterlimit="1.41421" viewBox="0 0 560 400" xmlns="http://www.w3.org/2000/svg"><g fill="#ff002e" transform="matrix(.262918 0 0 .262918 148.541 100)"><g><path d="m493.141 0h170.057s-192.049 170.336-208.742 185.924c-16.703 15.57-23.393 27.278-28.405 45.641-5.01 18.38 2.793 45.647 9.472 54.559 6.691 8.895 22.266 30.242 58.641 35.8 1.852 0-125.438.087-161.053.087-38.969.284-55.576-20.653-62.359-29.489-7.782-10.159-23.647-47.043-7.229-79.544 10.109-18.026 58.437-58.776 58.437-58.776z"/><path d="m507.047 493.252h-170.055s192.023-170.331 208.74-185.922c16.697-15.595 23.375-27.275 28.371-45.638 5.026-18.372-2.76-45.647-9.438-54.562-6.69-8.895-22.264-30.242-58.645-35.817-1.854 0 125.426-.067 161.059-.067 38.963-.289 55.54 20.646 62.333 29.487 7.808 10.159 23.657 47.043 7.255 79.556-10.148 18.017-58.457 58.768-58.457 58.768z"/><path d="m532.291 245.84c0 17.689-14.334 32.041-32.023 32.041s-32.029-14.351-32.029-32.041c0-17.683 14.34-32.026 32.029-32.026s32.023 14.343 32.023 32.026"/><g fill-rule="nonzero"><path d="m164.315 619.04c-4.453-11.81-11.423-16.976-21.481-16.976-13.6 0-25.076 10.188-25.076 32.92-.292 22.724 10.39 32.191 25.77 32.463 8.617.152 16.473-2.544 23.03-19.075l16.576 7.353c-9.698 21.692-19.908 28.972-39.418 28.972-27.222 0-45.1-18.299-45.743-50.032-.59-29.125 20.513-50.002 45.743-49.724 20.411.216 33.675 10.176 38.463 29.947z"/><path d="m200.798 683.864v-96.46h38.147c24.107 0 33.193 14.859 33.525 28.564.255 11.898-5.64 24.488-18.575 27.823l21.328 39.651-20.653.017-19.227-36.417h-16.68v36.635zm18.315-52.359h15.307c17.847 0 18.558-10.367 18.558-15.338 0-4.143-4.771-12.432-15.938-12.432h-17.737z"/><path d="m475.299 683.847v-96.85l17.667.224 39.19 67.008v-67.232h16.868v96.85l-16.419-.17-39.884-67.941.037 68.111z"/><path d="m678.127 619.04c-4.787-12.772-14.533-17.437-25.199-17.437-15.063 0-25.71 12.32-25.71 33.842 0 20.434 11.527 32.226 25.71 32.226 13.321 0 25.753-10.421 24.641-21.893h-23.303v-15.608h39.933v53.175h-15.762v-8.183c-9.485 8.045-15.591 9.485-26.823 9.533-26.255.149-42.952-21.361-42.952-48.794 0-24.734 13.68-51.706 44.995-50.982 21.311.486 34.354 10.843 40.404 28.06z"/><path d="m810.236 683.709v-96.558l27.66-.234 17.952 71.198 16.386-70.964h26.892v96.558h-17.944v-75.967h-.262l-17.36 75.967h-18.019l-17.079-75.967h-.275v75.967z"/><path d="m718.941 683.527v-96.481h68.235v17.537h-50.005v20.654h44.596v16.588h-44.596v24.145h51.62v17.557z"/><path d="m293.654 683.855v-96.505h68.253v17.561h-50.005v20.647h44.577v16.584h-44.577v24.149h51.62v17.564z"/><path d="m384.243 683.536v-96.49h68.234v17.537h-50.011v20.654h44.602v16.588h-44.602v24.145h51.621v17.566z"/></g></g><g fill-rule="nonzero"><g><path d="m66.725 614.887c-6.36-8.289-16.18-13.56-25.8-13.56-8.864 0-16.369 3.476-16.302 11 .194 17.314 58.995 4.796 58.384 40.966-.329 19.906-16.383 31.109-40.055 31.214-18.135.095-33.708-6.528-42.952-19.612l15.762-11.602c6.276 8.354 15.175 13.483 27.138 14.153 12.295.692 20.825-4.955 20.412-12.287-1.009-17.047-57.746-6.496-58.403-39.491-.398-19.457 16.956-30.538 35.44-30.538 17.172 0 32.431 5.524 41.362 19.229z"/><path d="m983.711 614.861c-6.364-8.29-16.16-13.569-25.784-13.569-8.86 0-16.388 3.486-16.297 11.011.17 17.315 58.97 4.795 58.365 40.966-.328 19.908-16.386 31.11-40.057 31.211-18.139.097-33.689-6.525-42.95-19.616l15.758-11.595c6.265 8.35 15.174 13.484 27.144 14.149 12.29.694 20.823-4.947 20.404-12.284-1.002-17.045-57.745-6.505-58.401-39.493-.396-19.456 16.961-30.535 35.445-30.535 17.167 0 32.441 5.521 41.373 19.229z"/></g><g><path d="m342.762 749.546c-1.888 1.031-5.577 2.998-9.709 2.998-1.471 0-4.836-.408-4.836-3.405 0-3.678 5.844-4.493 14.545-5.325zm2.969-8.707c0-4.899-4.976-6.173-9.313-6.173-6.659 0-8.738 2.731-9.851 4.103l2.236 1.526c.955-1.083 2.742-3.219 7.822-3.219 3.037 0 6.136.995 6.136 3.591v.725c-7.451.872-17.354 1.142-17.354 7.747 0 4.931 4.649 5.826 7.785 5.826 3.657 0 6.763-1.104 9.538-2.898 0 .767.208 1.719.383 2.31h2.961c-.205-1.035-.343-1.832-.343-2.965z"/><path d="m364.668 746.762c1.525 2.049 4.09 5.402 12.051 5.402 4.107 0 9.692-1.154 9.692-5.29 0-8.081-23.165-.98-23.165-11.771 0-5.665 5.22-7.952 12.464-7.952 7.007 0 11.325 2.868 13.163 5.428l-2.36 1.9c-1.094-1.225-3.658-4.632-10.887-4.632-5.342 0-9.104 1.377-9.104 4.743 0 8.036 23.181.371 23.181 12.284 0 4.456-4.314 8.15-13.333 8.15-8.707 0-11.913-3.624-14.2-6.147z"/><path d="m500.265 747.503c-2.862 5.527-7.784 7.707-14.272 7.707-10.3 0-15.155-6.17-15.155-13.88 0-9.129 6.174-13.991 15.119-13.991 5.706 0 11.517 2.184 13.891 7.603l-2.776 1.276c-1.854-4.354-5.998-6.182-11.078-6.182-7.594 0-11.879 4.133-11.879 11.701 0 6.105 4.147 10.638 12.178 10.638 5.267 0 8.926-2.2 11.111-6.249z"/><path d="m513.313 752.03c-5.012 0-8.08-3.03-8.08-7.593 0-3.484 2.311-7.636 8.08-7.636 5.758 0 8.031 4.151 8.031 7.636 0 4.563-3.039 7.593-8.031 7.593m0 2.526c6.504 0 10.994-3.73 10.994-10.493 0-5.437-4.266-9.789-10.994-9.789-6.742 0-11.027 4.353-11.027 9.789-.001 6.763 4.526 10.493 11.027 10.493"/><path d="m527.637 734.855h2.863v2.67c2.185-1.863 4.452-3.251 7.593-3.251 4.176 0 5.288 2.004 6.067 3.389 2.988-2.52 4.975-3.389 7.787-3.389 1.75 0 7.008.357 7.008 5.878v13.815h-2.953v-12.714c0-1.168 0-4.452-4.212-4.452-3.329 0-5.771 2.179-7.019 3.351v13.815h-2.953v-12.714c0-1.168 0-4.452-4.143-4.452-3.381 0-5.845 2.179-7.072 3.351v13.815h-2.967v-19.112z"/><path d="m566.823 740.846c1.825-1.979 5.101-4.045 8.289-4.045 5.188 0 8.258 3.424 8.258 7.357 0 5.827-4.229 7.871-8.19 7.871-4.139 0-6.605-1.941-8.356-3.761v-7.422zm-2.964 19.847h2.964v-9.355c2.619 1.936 4.595 3.219 8.55 3.219 8.185 0 10.959-5.881 10.959-10.3 0-4.37-3.068-9.982-10.456-9.982-4.385 0-6.329 1.239-9.053 3.479v-2.897h-2.964z"/><path d="m605.58 749.146c-1.889 1.03-5.566 2.998-9.711 2.998-1.457 0-4.823-.408-4.823-3.405 0-3.678 5.849-4.493 14.534-5.325zm2.967-8.707c0-4.9-4.959-6.173-9.312-6.173-6.643 0-8.738 2.731-9.836 4.103l2.223 1.525c.971-1.082 2.741-3.218 7.838-3.218 3.035 0 6.12.995 6.12 3.591v.725c-7.454.871-17.342 1.141-17.342 7.747 0 4.931 4.637 5.826 7.771 5.826 3.659 0 6.781-1.104 9.537-2.898 0 .767.241 1.719.382 2.309h2.964c-.207-1.034-.345-1.831-.345-2.964z"/><path d="m613.747 734.855h2.967v2.776c1.997-1.762 4.63-3.357 8.026-3.357 2.395 0 7.909.549 7.909 7.084v12.609h-2.97v-12.02c.074-4.535-3.219-5.146-5.299-5.146-3.245 0-5.95 2-7.667 3.829v13.337h-2.967v-19.112z"/><path d="m636.723 757.408c.973.434 2.462.592 3.435.592 2.272 0 3.741-1.105 5.479-4.764l-9.813-18.372h3.209l8.181 15.409 7.819-15.409h3.23l-11.185 21.556c-1.196 2.338-3.26 4.273-6.696 4.273-1.232 0-2.443-.225-3.658-.581v-2.704z"/><path d="m402.318 752.03c-5.012 0-8.08-3.03-8.08-7.593 0-3.484 2.31-7.636 8.08-7.636 5.757 0 8.03 4.151 8.03 7.636.001 4.563-3.037 7.593-8.03 7.593m0 2.526c6.504 0 10.994-3.73 10.994-10.493 0-5.437-4.266-9.789-10.994-9.789-6.742 0-11.027 4.353-11.027 9.789 0 6.763 4.526 10.493 11.027 10.493"/><path d="m416.132 734.855h2.968v2.776c1.996-1.762 4.629-3.357 8.025-3.357 2.395 0 7.91.549 7.91 7.084v12.609h-2.97v-12.02c.073-4.535-3.22-5.146-5.299-5.146-3.246 0-5.95 2-7.667 3.829v13.337h-2.968v-19.112z"/><path d="m439.108 757.408c.972.434 2.462.592 3.434.592 2.272 0 3.742-1.105 5.479-4.764l-9.814-18.372h3.209l8.182 15.409 7.818-15.409h3.23l-11.185 21.556c-1.196 2.338-3.259 4.273-6.695 4.273-1.232 0-2.444-.225-3.658-.581z"/></g></g></g></svg>

<?xml version="1.0" encoding="UTF-8" standalone="no"?>
<!DOCTYPE svg PUBLIC "-//W3C//DTD SVG 1.1//EN" "http://www.w3.org/Graphics/SVG/1.1/DTD/svg11.dtd">
<svg width="100%" height="100%" viewBox="0 0 560 400" version="1.1" xmlns="http://www.w3.org/2000/svg" xmlns:xlink="http://www.w3.org/1999/xlink" xml:space="preserve" xmlns:serif="http://www.serif.com/" style="fill-rule:evenodd;clip-rule:evenodd;stroke-linejoin:round;stroke-miterlimit:1.41421;">
    <g transform="matrix(0.262918,0,0,0.262918,148.541,100)">
        <g>
            <path d="M493.141,0L663.198,0C663.198,0 471.149,170.336 454.456,185.924C437.753,201.494 431.063,213.202 426.051,231.565C421.041,249.945 428.844,277.212 435.523,286.124C442.214,295.019 457.789,316.366 494.164,321.924C496.016,321.924 368.726,322.011 333.111,322.011C294.142,322.295 277.535,301.358 270.752,292.522C262.97,282.363 247.105,245.479 263.523,212.978C273.632,194.952 321.96,154.202 321.96,154.202L493.141,0Z" style="fill:rgb(255,0,46);"/>
            <path d="M507.047,493.252L336.992,493.252C336.992,493.252 529.015,322.921 545.732,307.33C562.429,291.735 569.107,280.055 574.103,261.692C579.129,243.32 571.343,216.045 564.665,207.13C557.975,198.235 542.401,176.888 506.02,171.313C504.166,171.313 631.446,171.246 667.079,171.246C706.042,170.957 722.619,191.892 729.412,200.733C737.22,210.892 753.069,247.776 736.667,280.289C726.519,298.306 678.21,339.057 678.21,339.057L507.047,493.252Z" style="fill:rgb(255,0,46);"/>
            <path d="M532.291,245.84C532.291,263.529 517.957,277.881 500.268,277.881C482.579,277.881 468.239,263.53 468.239,245.84C468.239,228.157 482.579,213.814 500.268,213.814C517.957,213.814 532.291,228.157 532.291,245.84" style="fill:rgb(255,0,46);"/>
            <path d="M164.315,619.04C159.862,607.23 152.892,602.064 142.834,602.064C129.234,602.064 117.758,612.252 117.758,634.984C117.466,657.708 128.148,667.175 143.528,667.447C152.145,667.599 160.001,664.903 166.558,648.372L183.134,655.725C173.436,677.417 163.226,684.697 143.716,684.697C116.494,684.697 98.616,666.398 97.973,634.665C97.383,605.54 118.486,584.663 143.716,584.941C164.127,585.157 177.391,595.117 182.179,614.888L164.315,619.04Z" style="fill:rgb(255,0,46);fill-rule:nonzero;"/>
            <path d="M200.798,683.864L200.798,587.404L238.945,587.404C263.052,587.404 272.138,602.263 272.47,615.968C272.725,627.866 266.83,640.456 253.895,643.791L275.223,683.442L254.57,683.459L235.343,647.042L218.663,647.042L218.663,683.677L200.798,683.864ZM219.113,631.505L234.42,631.505C252.267,631.505 252.978,621.138 252.978,616.167C252.978,612.024 248.207,603.735 237.04,603.735L219.303,603.735L219.113,631.505Z" style="fill:rgb(255,0,46);fill-rule:nonzero;"/>
            <path d="M475.299,683.847L475.299,586.997L492.966,587.221L532.156,654.229L532.156,586.997L549.024,586.997L549.024,683.847L532.605,683.677L492.721,615.736L492.758,683.847L475.299,683.847Z" style="fill:rgb(255,0,46);fill-rule:nonzero;"/>
            <path d="M678.127,619.04C673.34,606.268 663.594,601.603 652.928,601.603C637.865,601.603 627.218,613.923 627.218,635.445C627.218,655.879 638.745,667.671 652.928,667.671C666.249,667.671 678.681,657.25 677.569,645.778L654.266,645.778L654.266,630.17L694.199,630.17L694.199,683.345L678.437,683.345L678.437,675.162C668.952,683.207 662.846,684.647 651.614,684.695C625.359,684.844 608.662,663.334 608.662,635.901C608.662,611.167 622.342,584.195 653.657,584.919C674.968,585.405 688.011,595.762 694.061,612.979L678.127,619.04Z" style="fill:rgb(255,0,46);fill-rule:nonzero;"/>
            <path d="M810.236,683.709L810.236,587.151L837.896,586.917L855.848,658.115L872.234,587.151L899.126,587.151L899.126,683.709L881.182,683.709L881.182,607.742L880.92,607.742L863.56,683.709L845.541,683.709L828.462,607.742L828.187,607.742L828.187,683.709L810.236,683.709Z" style="fill:rgb(255,0,46);fill-rule:nonzero;"/>
            <path d="M718.941,683.527L718.941,587.046L787.176,587.046L787.176,604.583L737.171,604.583L737.171,625.237L781.767,625.237L781.767,641.825L737.171,641.825L737.171,665.97L788.791,665.97L788.791,683.527L718.941,683.527Z" style="fill:rgb(255,0,46);fill-rule:nonzero;"/>
            <path d="M293.654,683.855L293.654,587.35L361.907,587.35L361.907,604.911L311.902,604.911L311.902,625.558L356.479,625.558L356.479,642.142L311.902,642.142L311.902,666.291L363.522,666.291L363.522,683.855L293.654,683.855Z" style="fill:rgb(255,0,46);fill-rule:nonzero;"/>
            <path d="M384.243,683.536L384.243,587.046L452.477,587.046L452.477,604.583L402.466,604.583L402.466,625.237L447.068,625.237L447.068,641.825L402.466,641.825L402.466,665.97L454.087,665.97L454.087,683.536L384.243,683.536Z" style="fill:rgb(255,0,46);fill-rule:nonzero;"/>
        </g>
        <g>
            <path d="M66.725,614.887C60.365,606.598 50.545,601.327 40.925,601.327C32.061,601.327 24.556,604.803 24.623,612.327C24.817,629.641 83.618,617.123 83.007,653.293C82.678,673.199 66.624,684.402 42.952,684.507C24.817,684.602 9.244,677.979 0,664.895L15.762,653.293C22.038,661.647 30.937,666.776 42.9,667.446C55.195,668.138 63.725,662.491 63.312,655.159C62.303,638.112 5.566,648.663 4.909,615.668C4.511,596.211 21.865,585.13 40.349,585.13C57.521,585.13 72.78,590.654 81.711,604.359L66.725,614.887Z" style="fill:rgb(255,0,46);fill-rule:nonzero;"/>
            <path d="M983.711,614.861C977.347,606.571 967.551,601.292 957.927,601.292C949.067,601.292 941.539,604.778 941.63,612.303C941.8,629.618 1000.6,617.098 999.995,653.269C999.667,673.177 983.609,684.379 959.938,684.48C941.799,684.577 926.249,677.955 916.988,664.864L932.746,653.269C939.011,661.619 947.92,666.753 959.89,667.418C972.18,668.112 980.713,662.471 980.294,655.134C979.292,638.089 922.549,648.629 921.893,615.641C921.497,596.185 938.854,585.106 957.338,585.106C974.505,585.106 989.779,590.627 998.711,604.335L983.711,614.861Z" style="fill:rgb(255,0,46);fill-rule:nonzero;"/>
        </g>
        <g>
            <path d="M342.762,749.546C340.874,750.577 337.185,752.544 333.053,752.544C331.582,752.544 328.217,752.136 328.217,749.139C328.217,745.461 334.061,744.646 342.762,743.814L342.762,749.546ZM345.731,740.839C345.731,735.94 340.755,734.666 336.418,734.666C329.759,734.666 327.68,737.397 326.567,738.769L328.803,740.295C329.758,739.212 331.545,737.076 336.625,737.076C339.662,737.076 342.761,738.071 342.761,740.667L342.761,741.392C335.31,742.264 325.407,742.534 325.407,749.139C325.407,754.07 330.056,754.965 333.192,754.965C336.849,754.965 339.955,753.861 342.73,752.067C342.73,752.834 342.938,753.786 343.113,754.377L346.074,754.377C345.869,753.342 345.731,752.545 345.731,751.412L345.731,740.839Z" style="fill:rgb(255,0,46);fill-rule:nonzero;"/>
            <path d="M364.668,746.762C366.193,748.811 368.758,752.164 376.719,752.164C380.826,752.164 386.411,751.01 386.411,746.874C386.411,738.793 363.246,745.894 363.246,735.103C363.246,729.438 368.466,727.151 375.71,727.151C382.717,727.151 387.035,730.019 388.873,732.579L386.513,734.479C385.419,733.254 382.855,729.847 375.626,729.847C370.284,729.847 366.522,731.224 366.522,734.59C366.522,742.626 389.703,734.961 389.703,746.874C389.703,751.33 385.389,755.024 376.37,755.024C367.663,755.024 364.457,751.4 362.17,748.877L364.668,746.762Z" style="fill:rgb(255,0,46);fill-rule:nonzero;"/>
            <path d="M500.265,747.503C497.403,753.03 492.481,755.21 485.993,755.21C475.693,755.21 470.838,749.04 470.838,741.33C470.838,732.201 477.012,727.339 485.957,727.339C491.663,727.339 497.474,729.523 499.848,734.942L497.072,736.218C495.218,731.864 491.074,730.036 485.994,730.036C478.4,730.036 474.115,734.169 474.115,741.737C474.115,747.842 478.262,752.375 486.293,752.375C491.56,752.375 495.219,750.175 497.404,746.126L500.265,747.503Z" style="fill:rgb(255,0,46);fill-rule:nonzero;"/>
            <path d="M513.313,752.03C508.301,752.03 505.233,749 505.233,744.437C505.233,740.953 507.544,736.801 513.313,736.801C519.071,736.801 521.344,740.952 521.344,744.437C521.344,749 518.305,752.03 513.313,752.03M513.313,754.556C519.817,754.556 524.307,750.826 524.307,744.063C524.307,738.626 520.041,734.274 513.313,734.274C506.571,734.274 502.286,738.627 502.286,744.063C502.285,750.826 506.812,754.556 513.313,754.556" style="fill:rgb(255,0,46);fill-rule:nonzero;"/>
            <path d="M527.637,734.855L530.5,734.855L530.5,737.525C532.685,735.662 534.952,734.274 538.093,734.274C542.269,734.274 543.381,736.278 544.16,737.663C547.148,735.143 549.135,734.274 551.947,734.274C553.697,734.274 558.955,734.631 558.955,740.152L558.955,753.967L556.002,753.967L556.002,741.253C556.002,740.085 556.002,736.801 551.79,736.801C548.461,736.801 546.019,738.98 544.771,740.152L544.771,753.967L541.818,753.967L541.818,741.253C541.818,740.085 541.818,736.801 537.675,736.801C534.294,736.801 531.83,738.98 530.603,740.152L530.603,753.967L527.636,753.967L527.636,734.855L527.637,734.855Z" style="fill:rgb(255,0,46);fill-rule:nonzero;"/>
            <path d="M566.823,740.846C568.648,738.867 571.924,736.801 575.112,736.801C580.3,736.801 583.37,740.225 583.37,744.158C583.37,749.985 579.141,752.029 575.18,752.029C571.041,752.029 568.575,750.088 566.824,748.268L566.824,740.846L566.823,740.846ZM563.859,760.693L566.823,760.693L566.823,751.338C569.442,753.274 571.418,754.557 575.373,754.557C583.558,754.557 586.332,748.676 586.332,744.257C586.332,739.887 583.264,734.275 575.876,734.275C571.491,734.275 569.547,735.514 566.823,737.754L566.823,734.857L563.859,734.857L563.859,760.693Z" style="fill:rgb(255,0,46);fill-rule:nonzero;"/>
            <path d="M605.58,749.146C603.691,750.176 600.014,752.144 595.869,752.144C594.412,752.144 591.046,751.736 591.046,748.739C591.046,745.061 596.895,744.246 605.58,743.414L605.58,749.146ZM608.547,740.439C608.547,735.539 603.588,734.266 599.235,734.266C592.592,734.266 590.497,736.997 589.399,738.369L591.622,739.894C592.593,738.812 594.363,736.676 599.46,736.676C602.495,736.676 605.58,737.671 605.58,740.267L605.58,740.992C598.126,741.863 588.238,742.133 588.238,748.739C588.238,753.67 592.875,754.565 596.009,754.565C599.668,754.565 602.79,753.461 605.546,751.667C605.546,752.434 605.787,753.386 605.928,753.976L608.892,753.976C608.685,752.942 608.547,752.145 608.547,751.012L608.547,740.439Z" style="fill:rgb(255,0,46);fill-rule:nonzero;"/>
            <path d="M613.747,734.855L616.714,734.855L616.714,737.631C618.711,735.869 621.344,734.274 624.74,734.274C627.135,734.274 632.649,734.823 632.649,741.358L632.649,753.967L629.679,753.967L629.679,741.947C629.753,737.412 626.46,736.801 624.38,736.801C621.135,736.801 618.43,738.801 616.713,740.63L616.713,753.967L613.746,753.967L613.746,734.855L613.747,734.855Z" style="fill:rgb(255,0,46);fill-rule:nonzero;"/>
            <path d="M636.723,757.408C637.696,757.842 639.185,758 640.158,758C642.43,758 643.899,756.895 645.637,753.236L635.824,734.864L639.033,734.864L647.214,750.273L655.033,734.864L658.263,734.864L647.078,756.42C645.882,758.758 643.818,760.693 640.382,760.693C639.15,760.693 637.939,760.468 636.724,760.112L636.724,757.408L636.723,757.408Z" style="fill:rgb(255,0,46);fill-rule:nonzero;"/>
            <path d="M402.318,752.03C397.306,752.03 394.238,749 394.238,744.437C394.238,740.953 396.548,736.801 402.318,736.801C408.075,736.801 410.348,740.952 410.348,744.437C410.349,749 407.311,752.03 402.318,752.03M402.318,754.556C408.822,754.556 413.312,750.826 413.312,744.063C413.312,738.626 409.046,734.274 402.318,734.274C395.576,734.274 391.291,738.627 391.291,744.063C391.291,750.826 395.817,754.556 402.318,754.556" style="fill:rgb(255,0,46);fill-rule:nonzero;"/>
            <path d="M416.132,734.855L419.1,734.855L419.1,737.631C421.096,735.869 423.729,734.274 427.125,734.274C429.52,734.274 435.035,734.823 435.035,741.358L435.035,753.967L432.065,753.967L432.065,741.947C432.138,737.412 428.845,736.801 426.766,736.801C423.52,736.801 420.816,738.801 419.099,740.63L419.099,753.967L416.131,753.967L416.131,734.855L416.132,734.855Z" style="fill:rgb(255,0,46);fill-rule:nonzero;"/>
            <path d="M439.108,757.408C440.08,757.842 441.57,758 442.542,758C444.814,758 446.284,756.895 448.021,753.236L438.207,734.864L441.416,734.864L449.598,750.273L457.416,734.864L460.646,734.864L449.461,756.42C448.265,758.758 446.202,760.693 442.766,760.693C441.534,760.693 440.322,760.468 439.108,760.112L439.108,757.408Z" style="fill:rgb(255,0,46);fill-rule:nonzero;"/>
        </g>
    </g>
</svg>
